packages/ui-icons/svg/Line/timer.svg

<svg viewBox="0 0 1920 1920" version="1.1" xmlns="http://www.w3.org/2000/svg">
    <path d="M960,0 C1489.35529,0 1920,430.644706 1920,960 C1920,1489.35529 1489.35529,1920 960,1920 C430.644706,1920 0,1489.35529 0,960 C0,787.312941 46.4188235,618.014118 134.174118,470.4 L134.174118,470.4 L231.190588,528.112941 C153.825882,658.221176 112.941176,807.529412 112.941176,960 C112.941176,1427.12471 492.875294,1807.05882 960,1807.05882 C1427.12471,1807.05882 1807.05882,1427.12471 1807.05882,960 C1807.05882,511.962353 1457.28,144 1016.47059,114.861176 L1016.47059,114.861176 L1016.47059,338.823529 L903.529412,338.823529 L903.529412,0 Z M322.334118,242.371765 L804.592941,724.743529 C849.204706,695.04 902.512941,677.647059 960,677.647059 C1115.63294,677.647059 1242.35294,804.367059 1242.35294,960 C1242.35294,1115.63294 1115.63294,1242.35294 960,1242.35294 C804.367059,1242.35294 677.647059,1115.63294 677.647059,960 C677.647059,902.512941 695.04,849.204706 724.743529,804.592941 L724.743529,804.592941 L242.371765,322.334118 L322.334118,242.371765 Z M960,790.588235 C866.597647,790.588235 790.588235,866.597647 790.588235,960 C790.588235,1053.40235 866.597647,1129.41176 960,1129.41176 C1053.40235,1129.41176 1129.41176,1053.40235 1129.41176,960 C1129.41176,866.597647 1053.40235,790.588235 960,790.588235 Z" stroke="none" stroke-width="1" fill-rule="evenodd"/>
</svg>

<svg viewBox="0 0 1920 1920" xmlns="http://www.w3.org/2000/svg">
    <path d="M960 0c529.355 0 960 430.645 960 960s-430.645 960-960 960S0 1489.355 0 960c0-172.687 46.419-341.986 134.174-489.6l97.017 57.713C153.826 658.22 112.94 807.529 112.94 960c0 467.125 379.934 847.059 847.059 847.059 467.125 0 847.059-379.934 847.059-847.059 0-448.038-349.779-816-790.588-845.139v223.963H903.529V0ZM322.334 242.372l482.259 482.372c44.612-29.704 97.92-47.097 155.407-47.097 155.633 0 282.353 126.72 282.353 282.353S1115.633 1242.353 960 1242.353 677.647 1115.633 677.647 960c0-57.487 17.393-110.795 47.097-155.407L242.372 322.334l79.962-79.962ZM960 790.588c-93.402 0-169.412 76.01-169.412 169.412s76.01 169.412 169.412 169.412 169.412-76.01 169.412-169.412S1053.402 790.588 960 790.588Z" fill-rule="evenodd"/>
</svg>
